icon-themes/sifr_svg/cmd/sc_dbdelete.svg

<svg viewBox="0 0 16 16" xmlns="http://www.w3.org/2000/svg"><g fill="#555753"><path d="m5 5v1.4l1.6 1.6-1.6 1.6v1.4h1.4l1.6-1.6 1.6 1.6h1.4v-1.4l-1.6-1.6 1.6-1.6v-1.4h-1.4l-1.6 1.6-1.6-1.6z"/><path d="m8 1a7 7 0 0 0 -7 7 7 7 0 0 0 7 7 7 7 0 0 0 7-7 7 7 0 0 0 -7-7zm0 1a6 6 0 0 1 6 6 6 6 0 0 1 -6 6 6 6 0 0 1 -6-6 6 6 0 0 1 6-6z"/></g></svg>

<svg xmlns="http://www.w3.org/2000/svg" viewBox="0 0 16 16">
  <path
     style="fill:#555753"
     d="M 5,5 V 6.4 L 6.6,8 5,9.6 V 11 H 6.4 L 8,9.4 9.6,11 H 11 V 9.6 L 9.4,8 11,6.4 V 5 H 9.6 L 8,6.6 6.4,5 Z"
     />
  <path
     style="fill:#555753"
     d="M 8 1 A 7 7 0 0 0 1 8 A 7 7 0 0 0 8 15 A 7 7 0 0 0 15 8 A 7 7 0 0 0 8 1 z M 8 2 A 6 6 0 0 1 14 8 A 6 6 0 0 1 8 14 A 6 6 0 0 1 2 8 A 6 6 0 0 1 8 2 z "
     />
</svg>
